X: 115
T: 115. Was mein Gott will, das g'scheh allzeit
N: Derived from chor115.krn
C: Johann Sebastian Bach
%%abc-version 2.0
%%abcx-abcm2ps-target-version 5.9.1 (29 Sep 2008)
%%abc-creator hum2abc beta
%%abcx-conversion-date 2019/03/11 17:28:18
%%abc-edited-by Craig Stuart Sapp
%%humdrum-veritas 18036844
%%humdrum-veritas-data 2478502730
%%
%%barnumbers 0
L: 1/4
M: C
%%staves [1 2 3 4]
V: 1 clef=treble
V: 2 clef=treble
V: 3 clef=treble-8
V: 4 clef=bass
K: D
[V:1] F/G/ [I:setbarnb 1]| 
[V:2] D | 
[V:3] B | 
[V:4] B, | 
[V:1] ABAd | 
[V:2] DDDD/E/ | 
[V:3] AGF/G/A/B/ | 
[V:4] F,G,D,/E,/F,/G,/ | 
[V:1] dc!fermata!dd | 
[V:2] F/G/A!fermata!A^G | 
[V:3] Ae!fermata!fe/d/ | 
[V:4] A,A,,!fermata!D,B,, | 
[V:1] cBed/c/ | 
[V:2] A=G/A/BB | 
[V:3] e/f/ggf | 
[V:4] A,,E,/F,/ G,/A,/B, | 
[V:1] c2!fermata!B :|]  
[V:2] B^A!fermata!F :|]  
[V:3] gf/e/!fermata!d :|]  
[V:4] E,F,!fermata!B,, :|]  
[V:1] B [I:setbarnb 5]| 
[V:2] F | 
[V:3] d/c/ | 
[V:4] B,/=A,/ | 
[V:1] BBc/B/A | 
[V:2] E/F/^GGF | 
[V:3] Be/d/cc | 
[V:4] ^G,/F,/E,^E,F,/=E,/ | 
[V:1] A^G!fermata!AA | 
[V:2] FE!fermata!EF | 
[V:3] Bc/d/!fermata!cd | 
[V:4] ^D,E,!fermata!A,,=D, | 
[V:1] Bcdc | 
[V:2] F/E/ E/D/DE | 
[V:3] d/c/ c/B/ B/^A/ ^A/^G/ | 
[V:4] ^G,,^A,,B,,C, | 
[V:1] B2!fermata!cF/G/ | 
[V:2] F^G/^E/!fermata!FF | 
[V:3] F/B/ d/^G/!fermata!^Ad | 
[V:4] D,B,,!fermata!F,B, | 
[V:1] ABAd | 
[V:2] FF/^E/FF | 
[V:3] cd/B/cd/c/ | 
[V:4] =A,^G,F,B,/A,/ | 
[V:1] dc!fermata!dd | 
[V:2] =EF/=G/!fermata!FF | 
[V:3] BA!fermata!AA/B/ | 
[V:4] ^G,A,!fermata!D,F,/^G,/ | 
[V:1] cBed/c/ | 
[V:2] E/F/ ^G/^A/BB | 
[V:3] c/^d/eB/c/d | 
[V:4] A,^G,=G,F, | 
[V:1] c2!fermata!B |]  
[V:2] B^A!fermata!F |]  
[V:3] ^Gc!fermata!^d |]  
[V:4] ^E,F,!fermata!B,, |]  



